src/rounded/icons/fi-rr-building.svg

<svg id="Layer_1" height="512" viewBox="0 0 24 24" width="512" xmlns="http://www.w3.org/2000/svg" data-name="Layer 1"><path d="m7 14a1 1 0 0 1 -1 1h-1a1 1 0 0 1 0-2h1a1 1 0 0 1 1 1zm4-1h-1a1 1 0 0 0 0 2h1a1 1 0 0 0 0-2zm-5 4h-1a1 1 0 0 0 0 2h1a1 1 0 0 0 0-2zm5 0h-1a1 1 0 0 0 0 2h1a1 1 0 0 0 0-2zm-5-12h-1a1 1 0 0 0 0 2h1a1 1 0 0 0 0-2zm5 0h-1a1 1 0 0 0 0 2h1a1 1 0 0 0 0-2zm-5 4h-1a1 1 0 0 0 0 2h1a1 1 0 0 0 0-2zm5 0h-1a1 1 0 0 0 0 2h1a1 1 0 0 0 0-2zm13 1v9a5.006 5.006 0 0 1 -5 5h-14a5.006 5.006 0 0 1 -5-5v-14a5.006 5.006 0 0 1 5-5h6a5.006 5.006 0 0 1 5 5h3a5.006 5.006 0 0 1 5 5zm-19 12h9v-17a3 3 0 0 0 -3-3h-6a3 3 0 0 0 -3 3v14a3 3 0 0 0 3 3zm17-12a3 3 0 0 0 -3-3h-3v15h3a3 3 0 0 0 3-3zm-3 3a1 1 0 1 0 1 1 1 1 0 0 0 -1-1zm0 4a1 1 0 1 0 1 1 1 1 0 0 0 -1-1zm0-8a1 1 0 1 0 1 1 1 1 0 0 0 -1-1z"/></svg>

<svg id="Layer_1" data-name="Layer 1" xmlns="http://www.w3.org/2000/svg" viewBox="0 0 24 24"><path d="M7,14a1,1,0,0,1-1,1H5a1,1,0,0,1,0-2H6A1,1,0,0,1,7,14Zm4-1H10a1,1,0,0,0,0,2h1a1,1,0,0,0,0-2ZM6,17H5a1,1,0,0,0,0,2H6a1,1,0,0,0,0-2Zm5,0H10a1,1,0,0,0,0,2h1a1,1,0,0,0,0-2ZM6,5H5A1,1,0,0,0,5,7H6A1,1,0,0,0,6,5Zm5,0H10a1,1,0,0,0,0,2h1a1,1,0,0,0,0-2ZM6,9H5a1,1,0,0,0,0,2H6A1,1,0,0,0,6,9Zm5,0H10a1,1,0,0,0,0,2h1a1,1,0,0,0,0-2Zm13,1v9a5.006,5.006,0,0,1-5,5H5a5.006,5.006,0,0,1-5-5V5A5.006,5.006,0,0,1,5,0h6a5.006,5.006,0,0,1,5,5h3A5.006,5.006,0,0,1,24,10ZM5,22h9V5a3,3,0,0,0-3-3H5A3,3,0,0,0,2,5V19A3,3,0,0,0,5,22ZM22,10a3,3,0,0,0-3-3H16V22h3a3,3,0,0,0,3-3Zm-3,3a1,1,0,1,0,1,1A1,1,0,0,0,19,13Zm0,4a1,1,0,1,0,1,1A1,1,0,0,0,19,17Zm0-8a1,1,0,1,0,1,1A1,1,0,0,0,19,9Z"/></svg>
